src/16/panel/octopi-error.svg

<svg xmlns="http://www.w3.org/2000/svg" width="16" height="16" version="1">
 <defs>
  <style id="current-color-scheme" type="text/css">
   .ColorScheme-Text { color:#dfdfdf; } .ColorScheme-Highlight { color:#4285f4; }
  </style>
 </defs>
 <path style="fill:currentColor" class="ColorScheme-Highlight" d="M 1,6.999 V 6.999 12 C 1,14 1,15 2.5,15 4,15 4,14 4,12 4,14 4,15 5.5,15 7,15 7,14 7,12 7,14 7,15 8.5,15 10,15 10,14 10,12 10,14 10,15 11.5,15 13,15 13,14 13,12 V 6.9982 H 12.998 C 13,3.999 12,0.9982 7,0.998 2,0.9978 1,3.999 1,6.9982 Z M 4.5,4.9993 C 5.331,4.9993 6,5.6683 6,6.4993 6,7.3305 5.331,7.9995 4.5,7.9995 3.669,7.9995 3,7.3305 3,6.4993 3,5.6683 3.669,4.9993 4.5,4.9993 Z M 10.5,4.9993 C 11.331,4.9993 12,5.6683 12,6.4993 12,7.3305 11.331,7.9995 10.5,7.9995 9.669,7.9995 9,7.3305 9,6.4993 9,5.6683 9.669,4.9993 10.5,4.9993 Z"/>
</svg>

<svg xmlns="http://www.w3.org/2000/svg" width="16" height="16" version="1"><defs><style id="current-color-scheme" type="text/css">.ColorScheme-Text{color:#dfdfdf;}.ColorScheme-Highlight{color:#5294e2;}</style></defs><defs><style id="current-color-scheme" type="text/css"></style></defs><path d="M1 6.999V12c0 2 0 3 1.5 3S4 14 4 12c0 2 0 3 1.5 3S7 14 7 12c0 2 0 3 1.5 3s1.5-1 1.5-3c0 2 0 3 1.5 3s1.5-1 1.5-3V6.998h-.002C13 4 12 .998 7 .998s-6 3.001-6 6zm3.5-2C5.331 5 6 5.67 6 6.5 6 7.331 5.331 8 4.5 8S3 7.332 3 6.5C3 5.67 3.669 5 4.5 5zm6 0c.831 0 1.5.67 1.5 1.5 0 .832-.669 1.5-1.5 1.5S9 7.332 9 6.5c0-.83.669-1.5 1.5-1.5z" fill="currentColor" class="ColorScheme-Highlight"/></svg>
